X: 7
T: The Maid At The Well
R: jig
M: 6/8
L: 1/8
K: Amaj
A2 E FEF | ABc d2 e | fed c2 B | cAF FEF |A2 E FEF | ABc d2 e | fec d2 B | cAA A2 :|a2 e fef | aec d2 e | fed c2 B | cAF FEF |[1 a2 e fef | aec d2 e | fec d2 B | cAA A2 :|[2 A2 E FEF | ABc d2 e | fec d2 B | cAA A2 ||


Tune 752	Setting 13856

